X: 25000
T: Maid On The Green, The
R: jig
M: 6/8
K: Gmajor
d|gfg afd|~g3 ~a3|g2g eag|fdd d2a|
bag agf|~g3 e2d|Bee dBA|BGF G2:|

